!!!!SEGMENT: pl-kk--kk-i-500_anonim--niech-zyje-polski-krol.krn
!!!cenid: 18xx:1340
!!!COM: Anonim
!!!COM-rismid: pe30004985
!!!CDT:
!!!CNT:
!!!OTL: Niech żyje Polski król
!!!PDT:
!!!AGN: Sacred
!!!SMS-siglum: PL-Kk
!!!SMS-shelfmark: Kk.I.500
!!!SMS-shelfwork: W
!!!SMS-variant:
!!!SMS-altvar:
!!!NIFC-rismid: 1001136822
!!!URL-scan: http://repozytorium.nifc.pl/skany/pl-kk-nut--i-500
!!!ONB-nifc:
!!!key:
**kern	**text	**kern	**text	**kern	**text	**kern	**text
*part4	*part4	*part3	*part3	*part2	*part2	*part1	*part1
*staff4	*staff4	*staff3	*staff3	*staff2	*staff2	*staff1	*staff1
*Iempty	*	*Itenor	*	*Ialto	*	*Isoprn	*
*I"Baſso.	*	*I"Tenor.	*	*I"Alto.	*	*I"Sopran.	*
*I'B	*	*I'T	*	*I'A	*	*I'S	*
*group1	*	*group1	*	*group1	*	*group1	*
*clefF4	*	*clefC4	*	*clefC3	*	*clefC1	*
*k[f#]	*	*k[f#]	*	*k[f#]	*	*k[f#]	*
*G:	*	*G:	*	*G:	*	*G:	*
*M3/4	*	*M3/4	*	*M3/4	*	*M3/4	*
=1	=1	=1	=1	=1	=1	=1	=1
*2\right	*	*2\right	*	*2\right	*	*2\right	*
!LO:TX:a:t=Spiew narodowy	!	!LO:TX:a:t=Spiew narodowy	!	!LO:TX:a:t=Śpiew narodowy z roku 1829. w Lipcu	!	!LO:TX:a:t=Śpiew narodowy z roku 1829 w Lipcu	!
!	!	!LO:TX:t=P:problem=4\right&colon; global	!	!LO:TX:t=P:problem=4\right&colon; global	!	!LO:TX:t=P:problem=4\right&colon; global	!
4GG/	Niech	4B\	Niech	4d\	Niech	4g\	Niech
4BB/	ży-	4d\	ży-	4g\	ży-	4g\	ży-
4C/	-ie	4c\	-ie	4e\	-ie	4a\	-ie
=2	=2	=2	=2	=2	=2	=2	=2
!LO:TX:t=P:problem=4\right&colon; global	!	!	!	!	!	!	!
4.D\	Pol-	4.A\	Pol-	4.d\	Pol-	4.f#/	Pol-
!LO:TX:t=P:problem=8\right&colon; global	!	!LO:TX:t=P:problem=8\right&colon; global	!	!LO:TX:t=P:problem=8\right&colon; global	!	!	!
8D\	-ski	8B\	-ski	8d\	-ski	8g/	-ski
4D\	Krol	4F#X/	Krol,	4d\	Krol,	4a\	Krol,
=3	=3	=3	=3	=3	=3	=3	=3
4GG/	wiel-	4G/	wiel-	4d\	wiel-	4b\	wiel-
4E\	-ki	4G/	-ki	4g\	-ki	4b\	-ki
4C/	po-	4A\	po-	4e\	po-	4cc\	po-
=4	=4	=4	=4	=4	=4	=4	=4
4.D\	-tę-	4.d\	-tę-	4.g\	-tę-	4.b\	-tę-
!	!	!	!	!	!	!LO:TX:t=P:problem=8\right&colon; global	!
8D#X\	-żny	8c\	-żny	8f#\	-żny	8a\	-żny
4E\	Krol,	4B\	Krol,	4g\	Krol	4g\	Król
!	!	!	!	!LO:TX:t=P:problem=wykreślony takt przed t.5	!	!	!
!	!	!	!	!LO:LB:g=original	!	!LO:LB:g=original	!
=5	=5	=5	=5	=5	=5	=5	=5
4C/	niech	4c\	niech	4e\	niech	8b\L	niech
.	.	.	.	.	.	8a\J	.
!LO:LB:g=original	!	!	!	!	!	!	!
4D\	ży-	4B\	ży-	4d\	ży-	4g/	ży-
4D\	-ie	4A\	-ie	4d\	-ie	4f#/	-ie
!	!	!LO:LB:g=original	!	!	!	!	!
=6	=6	=6	=6	=6	=6	=6	=6
2GG/	Krol,	2B\	Krol,	2d\	Krol,	2g\	Krol,
!	!	!	!	!LO:N:vis=4	!	!	!
4r	.	4r	.	8r	.	4r	.
!	!	!	!	!LO:N:vis=4	!	!	!
.	.	.	.	8r	.	.	.
=7!|:	=7!|:	=7!|:	=7!|:	=7!|:	=7!|:	=7!|:	=7!|:
4GG/	Dni	4d\	Dni	4b\	Dni	4dd\	Dni
4BB/	ie-	4d\	ie-	4b\	ie-	4dd\	ie-
4D/	-go	4d\	-go	4b\	-go	4dd\	-go
=8	=8	=8	=8	=8	=8	=8	=8
4.G\	Bo-	4.d\	Bo-	4.b\	Bo-	4.dd\	Bo-
8F#\	-że	8d\	-że	8a\	-że	8cc\	-że
4G\	chron,	4d\	chroń,	4g\	chron,	4b\	chroń,
=9	=9	=9	=9	=9	=9	=9	=9
4D\	w Bo-	4d\	w Bo-	4a\	w Bo-	4cc\	w bo-
4F#\	-iu	4d\	-iu	4a\	-iu	4cc\	-iu
4A\	po-	4d\	po-	4a\	po-	4cc\	po-
!	!	!	!	!LO:LB:g=original	!	!LO:LB:g=original	!
=10	=10	=10	=10	=10	=10	=10	=10
4.d\	-pro-	4.d\	-pro-	4.f#\	-pro-	4.cc\	-pro-
8D\	-wadź	8d\	-wadź	8g\	-wadz	8b\	-wadz
!LO:LB:g=original	!	!	!	!	!	!	!
4D\	dłoń,	4d\	dłoń,	4f#\	Dłoń,	4a\	dłoń,
!	!	!LO:LB:g=original	!	!	!	!	!
=11	=11	=11	=11	=11	=11	=11	=11
4G\	zwy-	8d\L	zwy-	4g\	zwy-	4b\	zwy-
.	.	8d#X\J	.	.	.	.	.
4G\	-cięs-	8e\L	-cięs-	4g\	-cięs-	8cc\L	-cięs-
.	.	8dn\J	.	.	.	8b\J	.
4G\	-twem	8c\L	-twem,	8f#\L	-twem,	8a\L	-twem,
.	.	8B\J	.	8g\J	.	8g\J	.
=12	=12	=12	=12	=12	=12	=12	=12
4.G\	u-	4.d\	u-	4.g\	u-	4.b\	u-
8E\	-wieńcz	8G/	-wieńcz	8g\	-wieńcz	8cc\	-wieńcz
4BB/	ſkron,	4G/	ſkron,	4g\	ſkroń,	4dd\	skron,
=13	=13	=13	=13	=13	=13	=13	=13
4C/	niech	8.G/L	niech	4e\	niech	8dd\L	niech
.	.	.	.	.	.	8cc\J	.
.	.	16A/Jk	.	.	.	.	.
4D/	ży-	4d\	ży-	4g\	ży-	4b\	ży-
4D/	-ie	4c\	-ie	4f#\	-ie	4a\	-ie
=14	=14	=14	=14	=14	=14	=14	=14
2G\	Krol,	2B\	Krol,	2g\	Krol,	2g\	Król,
4r	.	4r	.	4r	.	4r	.
!	!	!LO:LB:g=original	!	!LO:LB:g=original	!	!LO:LB:g=original	!
=15:|!	=15:|!	=15:|!	=15:|!	=15:|!	=15:|!	=15:|!	=15:|!
4GG/	Wszech-	4B\	Wszech-	4d\	Wszech-	4g\	Wszech-
4BB/	-moc-	4d\	-moc-	4g\	-moc-	4g\	-moc-
4C/	-ny	4c\	-ny	4e\	-ny	4a\	-ny
!LO:LB:g=original	!	!	!	!	!	!	!
=16	=16	=16	=16	=16	=16	=16	=16
4.D\	Pa-	4.A\	Pa-	4.d\	Pa-	4.f#/	Pa-
8D\	-nie	8B\	-nie	8d\	-nie	8g/	-nie
4D\	nasz	4F#/	nasz,	4d\	nasz,	4a\	nasz,
=17	=17	=17	=17	=17	=17	=17	=17
4GG/	co	4G/	co	4d\	co	4b\	co
4E\	ie-	4G/	ie-	4g\	ie-	4b\	ie-
4C/	-go	4A\	-go	4e\	-go	4cc\	-go
=18	=18	=18	=18	=18	=18	=18	=18
4.D\	Wro-	4.d\	wro-	4.g\	wro-	4.b\	wro-
8D#X\	-gow	8c\	-gow	8f#\	-gow	8a\	-gow
4E\	znasz	4B\	znasz	4g\	znasz	4g\	znasz
=19	=19	=19	=19	=19	=19	=19	=19
4C/	zgła-	4c\	zgła-	4e\	zgła-	8b\L	zgła-
.	.	.	.	.	.	8a\J	.
4D\	-dzic	4B\	-dzic	4d\	-dzic	4g\	-dzic
4D\	ich	4A\	ich	4d\	ich	4f#/	ich
!	!	!	!	!LO:LB:g=original	!	!LO:LB:g=original	!
=20	=20	=20	=20	=20	=20	=20	=20
2GG/	dasz	2B\	dasz,	2d\	dasz,	2g\	dasz,
4r	.	4r	.	4r	.	4r	.
!LO:LB:g=original	!	!LO:LB:g=original	!	!	!	!	!
=21!|:	=21!|:	=21!|:	=21!|:	=21!|:	=21!|:	=21!|:	=21!|:
4GG/	Wal-	4d\	Wal-	4b\	Wal-	4dd\	Wal-
4BB/	-czą-	4d\	-czą-	4b\	-czą-	4dd\	-czą-
4D/	-cym	4d\	-cym	4b\	-cym	4dd\	-cym
=22	=22	=22	=22	=22	=22	=22	=22
4.G\	sił	4.d\	sił	4.b\	sił	4.dd\	sił
8F#\	day	8d\	dai	8a\	dai	8cc\	dai
4G\	twych	4d\	twych	4g\	twych	4b\	twych
=23	=23	=23	=23	=23	=23	=23	=23
4D\	zmie-	4d\	zmie-	4a\	zmie-	4cc\	zmie-
4F#\	-szay	4d\	-szay	4a\	-szay	4cc\	-szay
4A\	za-	4d\	za-	4a\	za-	4cc\	za-
=24	=24	=24	=24	=24	=24	=24	=24
4.d\	-mia-	4.d\	-mia-	4.f#\	-mia-	4.cc\	-mia-
8D\	-ry	8d\	-ry	8g\	-ry	8b\	-ry
4D\	złych	4d\	złych	4f#\	złych	4a\	złych
!	!	!	!	!LO:LB:g=original	!	!LO:LB:g=original	!
=25	=25	=25	=25	=25	=25	=25	=25
4G\	lub	8d\L	lub	4g\	lub	4b\	lub
.	.	8d#X\J	.	.	.	.	.
!	!	!LO:LB:g=original	!	!	!	!	!
4G\	u-	8e\Lv	u-	4g\	u-	8cc\L	u-
.	.	8dn\J	.	.	.	8b\J	.
4G\	-pa-	8d\L	-pa-	8f#\L	-pa-	8a\L	-pa-
.	.	8B\J	.	8g\J	.	8g\J	.
!LO:LB:g=original	!	!	!	!	!	!	!
=26	=26	=26	=26	=26	=26	=26	=26
4.G\	-mę-	4.d\	-mę-	4.g\	-mę-	4.b\	-mę-
8E\	-tay	8G/	-tay	8g\	-tai	8cc\	-tay
4BB/	ich	4G/	ich	4g\	ich,	4dd\	ich,
=27	=27	=27	=27	=27	=27	=27	=27
4C/	niech	8.G/L	niech	4e\	niech	8dd\L	niech
.	.	.	.	.	.	8cc\J	.
.	.	16A/Jk	.	.	.	.	.
4D\	ży-	4d\	ży-	4g\	ży-	4b\	ży-
4D\	-ie	4c\	-ie	4f#\	-ie	4a\	-ie
=28	=28	=28	=28	=28	=28	=28	=28
2G\	Krol,	2B\	Krol.	2g\	Krol,	2g/	Krol,
4r	.	4r	.	4r	.	4r	.
=29:|!	=29:|!	=29:|!	=29:|!	=29:|!	=29:|!	=29:|!	=29:|!
4GG/	Bo-	4B\	Bo-	4d\	Bo-	4g/	Bo-
4BB/	-że	4d\	-że	4g\	-że	4g/	-że
4C/	w ſzczo-	4c\	w ſzczo-	4e\	w ſzczo-	4a/	w ſzczo-
!	!	!LO:LB:g=original	!	!	!	!LO:LB:g=original	!
=30	=30	=30	=30	=30	=30	=30	=30
4.D\	-dro-	4.A\	-dro-	4.d\	-dro-	4.f#/	-dro-
8D\	-cie	8B\	-cie	8d\	-cie	8g/	-cie
4D\	twey,	4G/	swey,	4d\	swey,	4a\	swey,
!LO:LB:g=original	!	!	!	!	!	!	!
=31	=31	=31	=31	=31	=31	=31	=31
4BB/	wzys-	4G/	wzys-	4d\	wzys-	4b\	wzys-
4D\	-tkie	4G/	-tkie	4g\	-tkie	4b\	-tkie
4D/	nań,	4A\	nań,	4e\	nań,	4cc\	nań,
=32	=32	=32	=32	=32	=32	=32	=32
4.D\	da-	4.d\	da-	4.g\	da-	4.b\	da-
8D\	-ry	8c\	-ry	8e\	-ry	8a\	-ry
4E\	zley	4B\	zley	4g\	zley	4g\	zley
=33	=33	=33	=33	=33	=33	=33	=33
4C/	w O-	4c\	w O-	4e\	w o-	8b\L	w o-
.	.	.	.	.	.	8a\J	.
4D\	-pie-	4B\	-pie-	4d\	-pie-	4g/	-pie-
4F#\	-ce	4A\	-ce	4d\	-ce	4f#/	-ce
=34	=34	=34	=34	=34	=34	=34	=34
2GG/	miey	2B\	miey	2d\	miey	2g\	miey,
4r	.	4r	.	4r	.	4r	.
!	!	!LO:LB:g=original	!	!LO:LB:g=original	!	!LO:LB:g=original	!
=35!|:	=35!|:	=35!|:	=35!|:	=35!|:	=35!|:	=35!|:	=35!|:
4GG/	od	4d\	od	4b\	od	4dd\	od
4BB/	wsze-	4d\	wsze-	4b\	wsze-	4dd\	wsze-
4D/	-go	4d\	-go	4b\	-go	4dd\	-go
!LO:LB:g=original	!	!	!	!	!	!	!
=36	=36	=36	=36	=36	=36	=36	=36
4.G\	złe-	4.d\	złe-	4.b\	złe-	4.cc\	złe-
8F#\	-go	8d\	-go	8a\	-go	8cc\	-go
4G\	zbaw	4d\	zbaw	4g\	zbaw,	4b\	zbaw,
=37	=37	=37	=37	=37	=37	=37	=37
4D\	Rzą-	4d\	Rzą-	4a\	Rzą-	4cc\	Rzą-
4F#\	-dy	4d\	-dy	4a\	-dy	4cc\	-dy
4A\	do-	4d\	do-	4a\	do-	4cc\	do-
=38	=38	=38	=38	=38	=38	=38	=38
4.d\	-bro-	4.d\	-bro-	4.f#\	-bro-	4.cc\	-bro-
8D\	-cią	8d\	-cią	8g\	-cią	8b\	-cią
4D\	wsław	4d\	wsław	4f#\	wsław	4a\	wsław
!	!	!	!	!LO:LB:g=original	!	!LO:LB:g=original	!
=39	=39	=39	=39	=39	=39	=39	=39
4G\	Krol	8d\L	Krol	4g\	Krol	4b\	Krol
.	.	8d#X\J	.	.	.	.	.
!	!	!LO:LB:g=original	!	!	!	!	!
4G\	twier-	8d#\L	Twier-	4g\	Twier-	8cc\L	Twier-
.	.	8dn\J	.	.	.	8b\J	.
4G\	-dzą	8c\L	-dzą	8f#\L	-dzą	8a\L	-dzą
.	.	8B\J	.	8g\J	.	8g\J	.
=40	=40	=40	=40	=40	=40	=40	=40
4.G\	na-	4.d\	na-	4.g\	na-	4.b\	na-
8E\	-szych	8G/	-szych	8g\	-szych	8cc\	-szych
4BB/	Praw	4G/	Praw	4g\	Praw,	4dd\	Praw,
!LO:LB:g=original	!	!	!	!	!	!	!
=41	=41	=41	=41	=41	=41	=41	=41
4C/	niech	8.G/L	niech	4e\	niech	8dd\L	niech
.	.	.	.	.	.	8cc\J	.
.	.	16A/Jk	.	.	.	.	.
4D/	ży-	4d\	ży-	4g\	ży-	4b\	ży-
4D/	-ie	4c\	-ie	4f#\	-ie	4a\	-ie
=42	=42	=42	=42	=42	=42	=42	=42
2GG/	Krol.	2B\	Krol.	2g\	Krol.	2g\	Krol.
4r	.	4r	.	4r	.	4r	.
=:|!	=:|!	=:|!	=:|!	=:|!	=:|!	=:|!	=:|!
*-	*-	*-	*-	*-	*-	*-	*-
!!!system-decoration: [(g1)]
!!!AIN: 1 alto 1 empty 1 soprn 1 tenor
!!!ENC: Anna Matuszewska
!!!END: 2021-01-02
!!!ENC: Tomasz Grochalski
!!!END: 2020-12-31
